img/icon_singin.svg

<svg xmlns="http://www.w3.org/2000/svg" preserveAspectRatio="xMidYMid" width="20.062" height="19" viewBox="0 0 20.062 19"><defs><style>.cls-1{fill:#fff;fill-opacity:.99;fill-rule:evenodd}</style></defs><path d="M17.06 18.986H6a3 3 0 0 1-3-3V15h2v2h13V2H5v1.968H3v-.96a3 3 0 0 1 3-3h11.06a3 3 0 0 1 3 3v12.978a3 3 0 0 1-3 3zM6.023 4.158l7.027 5.3-7.026 5.3v-2.743h-6.03V6.9h6.03V4.16z" class="cls-1"/></svg>

<svg xmlns="http://www.w3.org/2000/svg" xmlns:xlink="http://www.w3.org/1999/xlink" preserveAspectRatio="xMidYMid" width="20.062" height="19" viewBox="0 0 20.062 19">
  <defs>
    <style>
      .cls-1 {
        fill: #fff;
        fill-opacity: 0.99;
        fill-rule: evenodd;
      }
    </style>
  </defs>
  <path d="M17.059,18.986 L6.000,18.986 C4.343,18.986 3.000,17.642 3.000,15.986 L3.000,15.000 L5.000,15.000 L5.000,17.000 L18.000,17.000 L18.000,2.000 L5.000,2.000 L5.000,3.968 L3.000,3.968 L3.000,3.009 C3.000,1.352 4.343,0.008 6.000,0.008 L17.059,0.008 C18.716,0.008 20.059,1.352 20.059,3.009 L20.059,15.986 C20.059,17.642 18.716,18.986 17.059,18.986 ZM6.024,4.158 L13.051,9.458 L6.024,14.757 L6.024,12.015 L-0.005,12.015 L-0.005,6.901 L6.024,6.901 L6.024,4.158 Z" class="cls-1"/>
</svg>
